X: 765
T: Opera Reel
C:Traditional
B: jims roots
M:2/4
L:1/4
Q: 1/4=100
K:D
V:1 
%N:Tabledited by  Jim Coon
%Q:220
|: DD F/D/F/A/ | "A7"DD E/D/E/F/ | "D"DD F/D/F/A/ | "Bm"B/d/A/F/ "A7"E2 :|
|: "D"dd d/A/F/A/ | "A7"dd e/f/g/e/ | "D"dd d/A/F/A/ | "Bm"B/d/A/F/ "A7"E2 :|
|: "D"aa/f/ "A7"gg/e/ | "D"f/a/e/d/ "A7"c/B/A | "D"aa/f/ "Bm"gg/e/ | "A7"f/a/e/c/ "D"d2 :|
|: "D"df/d/ "A7"e/f/g/e/ | "D"df/d/ "A7"e/d/c/A/ | "D"df/d/ "Bm"e/f/g/e/ | "A7"f/a/e/c/ "D"d2:|
% abcbook-tune_id 6298c279bed0f3e2d46ae2f0


% abcbook-boost 0
% abcbook-tablature 
% abcbook-transpose 
% abcbook-lastupdated 1654178426203
% abcbook-soundfonts 
% abcbook-repeats 1


